X: 0841
M: 6/8
L: 1/8
K: G
d |\
|: g/a/ |\
bgg dgg | bgb bag | aff dff | afa agf |\
egg dgg | cgg Bgg | cBc Adc | BGG G2 :|

